icons/svg/closed-caption.svg

﻿<?xml version="1.0" encoding="utf-8"?>
<!DOCTYPE svg PUBLIC "-//W3C//DTD SVG 1.1//EN" "http://www.w3.org/Graphics/SVG/1.1/DTD/svg11.dtd">
<svg xmlns="http://www.w3.org/2000/svg" xmlns:xlink="http://www.w3.org/1999/xlink" version="1.1" baseProfile="full" width="24" height="24" viewBox="0 0 24.00 24.00" enable-background="new 0 0 24.00 24.00" xml:space="preserve">
	<path fill="#000000" fill-opacity="1" stroke-width="0.2" stroke-linejoin="round" d="M 17.9994,10.998L 16.4994,10.998L 16.4994,10.498L 14.4994,10.498L 14.4994,13.498L 16.4994,13.498L 16.4994,12.998L 17.9994,12.998L 17.9994,13.998C 17.9994,14.55 17.5524,14.998 16.9994,14.998L 13.9994,14.998C 13.4464,14.998 12.9994,14.55 12.9994,13.998L 12.9994,9.99805C 12.9994,9.44604 13.4464,8.99805 13.9994,8.99805L 16.9994,8.99805C 17.5524,8.99805 17.9994,9.44604 17.9994,9.99805M 10.9994,10.998L 9.49938,10.998L 9.49938,10.498L 7.49938,10.498L 7.49938,13.498L 9.49938,13.498L 9.49938,12.998L 10.9994,12.998L 10.9994,13.998C 10.9994,14.55 10.5524,14.998 9.99938,14.998L 6.99938,14.998C 6.44638,14.998 5.99938,14.55 5.99938,13.998L 5.99938,9.99805C 5.99938,9.44604 6.44638,8.99805 6.99938,8.99805L 9.99938,8.99805C 10.5524,8.99805 10.9994,9.44604 10.9994,9.99805M 18.9994,3.99805L 4.99938,3.99805C 3.89438,3.99805 2.99938,4.89404 2.99938,5.99805L 2.99938,17.998C 2.99938,19.1021 3.89438,19.998 4.99938,19.998L 18.9994,19.998C 20.1029,19.998 20.9994,19.1021 20.9994,17.998L 20.9994,5.99805C 20.9994,4.89404 20.1029,3.99805 18.9994,3.99805 Z "/>
</svg>

<svg xmlns="http://www.w3.org/2000/svg" version="1.1" baseProfile="full" width="24" height="24" viewBox="0 0 24.00 24.00" xml:space="preserve"><path fill="#000" fill-opacity="1" stroke-width=".2" stroke-linejoin="round" d="M18 10.998h-1.5v-.5h-2v3h2v-.5H18v1c0 .552-.448 1-1 1h-3c-.554 0-1-.448-1-1v-4c0-.552.446-1 1-1h3c.552 0 1 .448 1 1m-7 1H9.5v-.5h-2v3h2v-.5H11v1c0 .552-.448 1-1 1H7c-.554 0-1-.448-1-1v-4c0-.552.446-1 1-1h3c.552 0 1 .448 1 1m8-6H5c-1.106 0-2 .896-2 2v12c0 1.104.894 2 2 2h14c1.103 0 2-.896 2-2v-12c0-1.104-.897-2-2-2z"/></svg>
